packages/tokens/icons/productBadgingStar/size16Px.svg

<svg viewBox="0 0 16 16" fill="none" xmlns="http://www.w3.org/2000/svg" width="1em" height="1em"><path d="M9.40565 4.85712L8.34654 3.83453C8.20082 3.69383 8.27414 3.44733 8.47307 3.40916L10.0291 3.11055C10.1088 3.09525 10.1762 3.04217 10.2097 2.96821L10.7723 1.72662C10.861 1.53086 11.139 1.53086 11.2277 1.72662L11.7903 2.96821C11.8238 3.04217 11.8912 3.09525 11.9709 3.11055L13.5269 3.40916C13.7259 3.44733 13.7992 3.69383 13.6535 3.83453L12.5943 4.85712C12.5353 4.91416 12.508 4.99659 12.5213 5.07762L12.7912 6.71558C12.8252 6.92159 12.6066 7.07598 12.4238 6.97512L11.1208 6.25623C11.0456 6.21475 10.9544 6.21475 10.8792 6.25623L9.57623 6.97512C9.39342 7.07598 9.17484 6.92159 9.20879 6.71558L9.47868 5.07762C9.49203 4.99659 9.46473 4.91416 9.40565 4.85712Z" stroke="currentColor"/><path d="M6.5 2.5H4.16667C3.24619 2.5 2.5 3.24619 2.5 4.16667L2.5 11.8333C2.5 12.7538 3.24619 13.5 4.16667 13.5L11.8333 13.5C12.7538 13.5 13.5 12.7538 13.5 11.8333V9.5" stroke="currentColor" stroke-linecap="round" stroke-linejoin="round"/><path d="M5.5 10.5H10.5" stroke="currentColor" stroke-linecap="round"/></svg>

<svg xmlns="http://www.w3.org/2000/svg" fill="none" viewBox="0 0 16 16" width="1em" height="1em"><path stroke="currentColor" d="m9.406 4.857-1.06-1.022a.25.25 0 0 1 .127-.426l1.556-.298a.25.25 0 0 0 .18-.143l.563-1.241a.25.25 0 0 1 .456 0l.562 1.241a.25.25 0 0 0 .18.143l1.557.298a.25.25 0 0 1 .127.426l-1.06 1.022a.25.25 0 0 0-.073.22l.27 1.639a.25.25 0 0 1-.367.26l-1.303-.72a.25.25 0 0 0-.242 0l-1.303.72a.25.25 0 0 1-.367-.26l.27-1.638a.25.25 0 0 0-.073-.22Z"/><path stroke="currentColor" stroke-linecap="round" stroke-linejoin="round" d="M6.5 2.5H4.167c-.92 0-1.667.746-1.667 1.667v7.666c0 .92.746 1.667 1.667 1.667h7.666c.92 0 1.667-.746 1.667-1.667V9.5"/><path stroke="currentColor" stroke-linecap="round" d="M5.5 10.5h5"/></svg>
